X: 1356
T: I Have No Money
R:Reel
N:Collected by McFadden
B:O'Neill's 1356
Z:Transcribed by Trish O'Neil
M:C|
L:1/8
K:C
G|(3EFG cA T(GF)G.G|EGcG EDDG|(3EFG cA T(GFG).A|cded cAAG|
(3EFG cAG3G|EGcG EDDG|(3EFG cAG3a|gefd ec c||
a|gede T(cBc)f|T(ge)df eaaf|T(ge)de T(cBc)A|GcGF ECCf|
T(ge)de TcBcf|gedf eaaf|geaf gedc|(3ABc GF Ec c|]


